X: 22129
T: Kung Fu Katie
R: reel
M: 4/4
K: Gmajor
|:Bdez gfeB|BBed efgz|gfea gfeB|BBAd defa|
gfeb gfeB|BBed efgg|gabz afgf|edeg bag2:|
|:gdB2 BBAG|GGBd dged|gdBz BBAG|GGEA AAEA|
GABz BBAG|GGBd dged|B/^c/d ez ggag|edeg bag2:|

